X:1
T:O'Sullivan's March
M:6/8
L:1/8
Q:80
C:Trad.
S:March
K:HP
|: {g}A{d}c{e}B{g}B{d}ce | \
{g}fec{gBd}B2A | \
{g}A{d}c{e}B{gcd}c2B |
{g}B{d}A{e}A{GAG}A3 | \
{g}A{d}c{e}B{g}B{d}ce | \
{g}fec{gBd}B2A |
{g}A{d}c{e}B{gcd}c2B | \
{g}B{d}A{e}A{GAG}A3 :: \
a |
{gfg}f2a{gfg}f2a | \
{gfg}faf{fg}fec | \
{g}efe{g}ece |
{g}e/2a3/2c{gcd}cB{d}A | \
{Gdc}dfd{GdG}c2e | \
{g}f/2a3/2c{gBd}B2A |
{g}A{d}c{e}Bc2B | \
{g}B{d}A{e}A{GAG}A3 :|
